X:219
U: ~ = !turn!
%%topmargin 3cm
T:Willie Coleman's
B:Traditional Irish Fiddle Tunes. Randy Miller and Jack Perron.
Z:Transcribed by Ralph Palmer
S:Andrew Davey
R:Jig
L:1/8
M:6/8
K:G
~B3 AGE | GED GBd | edB dgb | age dBA |
~B3 AGE | GED GBd | edB dBA | BG{/A}G G2A ::
Pgfg edB | dgb age | ~g3 edB | GBd e2 d |
Pgfg edB | dgb age | ~d3 g2 B | AGE GBd :|]
